src/assets/icons/instagram.svg

<svg xmlns="http://www.w3.org/2000/svg" width="24" height="24" fill="none"><path fill="#E1306C" d="M16.19 2H7.81C4.17 2 2 4.17 2 7.81v8.37C2 19.83 4.17 22 7.81 22h8.37c3.64 0 5.81-2.17 5.81-5.81V7.81C22 4.17 19.83 2 16.19 2ZM12 15.88c-2.14 0-3.88-1.74-3.88-3.88 0-2.14 1.74-3.88 3.88-3.88 2.14 0 3.88 1.74 3.88 3.88 0 2.14-1.74 3.88-3.88 3.88Zm5.92-9c-.05.12-.12.23-.21.33-.1.09-.21.16-.33.21a.995.995 0 0 1-1.09-.21c-.09-.1-.16-.21-.21-.33A.995.995 0 0 1 16 6.5c0-.13.03-.26.08-.38.05-.13.12-.23.21-.33.23-.23.58-.34.9-.27.07.01.13.03.19.06.06.02.12.05.18.09.05.03.1.08.15.12.09.1.16.2.21.33.05.12.08.25.08.38s-.03.26-.08.38Z"/></svg>

<svg width="24" height="24" viewBox="0 0 24 24" fill="none" xmlns="http://www.w3.org/2000/svg">
<path d="M16.19 2H7.81C4.17 2 2 4.17 2 7.81V16.18C2 19.83 4.17 22 7.81 22H16.18C19.82 22 21.99 19.83 21.99 16.19V7.81C22 4.17 19.83 2 16.19 2ZM12 15.88C9.86 15.88 8.12 14.14 8.12 12C8.12 9.86 9.86 8.12 12 8.12C14.14 8.12 15.88 9.86 15.88 12C15.88 14.14 14.14 15.88 12 15.88ZM17.92 6.88C17.87 7 17.8 7.11 17.71 7.21C17.61 7.3 17.5 7.37 17.38 7.42C17.26 7.47 17.13 7.5 17 7.5C16.73 7.5 16.48 7.4 16.29 7.21C16.2 7.11 16.13 7 16.08 6.88C16.03 6.76 16 6.63 16 6.5C16 6.37 16.03 6.24 16.08 6.12C16.13 5.99 16.2 5.89 16.29 5.79C16.52 5.56 16.87 5.45 17.19 5.52C17.26 5.53 17.32 5.55 17.38 5.58C17.44 5.6 17.5 5.63 17.56 5.67C17.61 5.7 17.66 5.75 17.71 5.79C17.8 5.89 17.87 5.99 17.92 6.12C17.97 6.24 18 6.37 18 6.5C18 6.63 17.97 6.76 17.92 6.88Z" fill="#E1306C"/>
</svg>
